!!!SOCIAL_FUNCTION: snake dance songs
!!!PDT:	1943
!!!LING_GROUP: Muskogean
!!!LANG: Non-Tone
Specific Region: Oklahoma, California, Mississippi, Louisiana, Texas, Alabama
!!!REG: Southeast
!!!COM: Anon.
!!!OTL: Snake Dance Song (a)
!!!ODT: <1933//
!!!MPN: Lapintabeseihoke [Kills it Himself, Sidney Wesley]
!!!MLC: Philadelphia, Mississippi, United States of America
!! Song was recorded in January 1933.
!!!AGN: monody
!!!AMT: irregular
!!!RWG: Transcribed pitches, durations, and meters are only approximate.
**kern
*ICvox
*Imale
*clefF4
*k[f#]
*M2/4
*MM66
*[A,B,B,C]
*>A
=1-
8G
8G
4A
*M3/4
=2
8.B
16G
8G
8D
4D
*M2/4
=3
8B
16B
16A
4B
*M3/4
=4
8.A
16G
8G
8D
8D
8r
*M2/4
=5
8G
8G
4A
*M3/4
=6
8.B
16G
8G
8D
4D
*M2/4
=7
8B
16B
16A
4B
*M3/4
=8
8.A
16G
8G
8D
8D
8r
*M2/4
=9
8G
8G
4A
*M3/4
=10
8.B
16G
8G
8D
8D
16r
16G
*>B
=!|:11
*M2/4
8.G
16G
8G
8r
*M3/4
=12
4G
4G
8.r
16G
*M2/4
=13
8.G
16G
8G
8r
*M3/4
=14
4G
4G
8.r
16A
*M2/4
=15
(8.A
16G)
8G
8r
*M3/4
=16
4G
4G
8.r
16G
*M2/4
=
8.G
16G
8G
8r
*M3/4
=
4G
4G
8.r
16G
=:|!
*>C
4G
4G
==
*-
!!!CNT: Choctaw
!!!TXO: Choctaw
!!!OCY: United States
!!!OCL: Frances Densmore
!!!YOR: Frances Densmore, "Choctaw Music"
!!!YOR: Bulletin 136, page 152, No. 31
!!!PPR: Smithsonian Institution, Bureau of American Ethnology
!!!PPR: Government Printing Office
!!!PDT: 1943
!!!PPP: Washington, DC, United States of America
!!!YEC: Electronic Copyright 2000 David Huron
!!!YER: August 2000
!!!YEN: United States of America
!!!ENC: David Huron
!!!RDT: August 28, 2000
!!!EEV: Release 1.0
!!!AIN: vox
